X: 1
T: Mick McGarry's
M: 6/8
L: 1/8
R: jig
K: Dmaj
~d3 BAG|FAd BAG|FDD ADD|FEE E3|
D2d BAG|FAd BAG|FDD CDE|FDD D3:|
|:~d3 edc|~d3 e3|~d3 Bce|cAA A2A|
def edc|~d3 BAG|FAd A2G|FDD D3:|
